gama.ui.shared/icons_svg/dark/experiment/experiment.simulations.save.svg

<svg height="25" viewBox="-454.774 -3215.705 25 25" width="25" xmlns="http://www.w3.org/2000/svg"><g fill="none"><path d="m-434.11414-3215.205h-16.32c-2.12076 0-3.84 1.719-3.84 3.84v16.32c0 2.1207 1.71924 3.84 3.84 3.84h16.32c2.12078 0 3.84-1.7193 3.84-3.84v-16.32c0-2.121-1.71922-3.84-3.84-3.84z" fill="#666"/><path d="m-434.11414-3215.205h-16.32c-2.12076 0-3.84 1.719-3.84 3.84v16.32c0 2.1207 1.71924 3.84 3.84 3.84h16.32c2.12078 0 3.84-1.7193 3.84-3.84v-16.32c0-2.121-1.71922-3.84-3.84-3.84z" stroke="#fff" stroke-linecap="round" stroke-linejoin="round" stroke-width=".25"/><path d="m-454.27414-3215.205h24v24h-24z"/><path d="m-446.90147-3201.205v4.152l-2.08683-2.2506-.63333.6831 3.16666 3.4155 3.16667-3.4155-.63333-.6831-2.08684 2.2506v-4.152z" fill="#8eed62"/><path d="m-446.90147-3201.205v4.152l-2.08683-2.2506-.63333.6831 3.16666 3.4155 3.16667-3.4155-.63333-.6831-2.08684 2.2506v-4.152z" stroke="#518737" stroke-linecap="round" stroke-linejoin="round" stroke-width=".25"/><path d="m-442.07665-3205.5578c-2.97425-.3585-4.59435-3.7449-2.92695-6.2555 2.3855-3.5947 7.8262-1.537 7.49504 2.8397-.13034 1.7326-1.37094 2.6936-1.68004 4.26-.7244 3.6682 3.8658 5.4302 5.918 2.4234 1.39514-2.0448-.06833-4.9171-2.52427-5.0938-.31643-.022-.87366.142-.97143-.269-.1104-.4638.4058-.492.72647-.491 3.0552.0125 5.04643 3.3137 3.59873 6-2.05746 3.8195-7.92396 2.2487-7.5644-2.2005.1882-2.3265 2.41704-3.5399 1.6159-6.122-.8915-2.8702-4.60697-3.337-6.0862-.7349-1.1691 2.0564.2134 4.6564 2.55896 4.8972-.16822-.3448-.51726-.6518-.69809-.9798-.22287-.404.25653-.8475.64868-.4175.42685.4689.77378 1.0955 1.2143 1.5675.10935.1977.05675.4038-.06519.5825-.56666.327-1.13126.9778-1.68636 1.2805-.31855.1735-.7191-.1114-.5488-.4667.11776-.2461.96935-.757.97776-.8201z" fill="#c0e0ff"/></g></svg>

<?xml version="1.0" encoding="UTF-8" standalone="no"?>
<!DOCTYPE svg PUBLIC "-//W3C//DTD SVG 1.1//EN" "http://www.w3.org/Graphics/SVG/1.1/DTD/svg11.dtd">
<svg xmlns="http://www.w3.org/2000/svg" xmlns:xl="http://www.w3.org/1999/xlink" version="1.1" xmlns:dc="http://purl.org/dc/elements/1.1/" viewBox="-454.77414 -3215.705 25 25" width="25" height="25">
  <defs/>
  <g id="SOURCES" stroke-opacity="1" fill="none" stroke="none" fill-opacity="1" stroke-dasharray="none">
    <title>SOURCES</title>
    <g id="SOURCES_Dark">
      <title>Dark</title>
      <g id="Graphic_10909">
        <path d="M -434.11414 -3215.205 L -450.43414 -3215.205 C -452.5549 -3215.205 -454.27414 -3213.486 -454.27414 -3211.365 L -454.27414 -3195.045 C -454.27414 -3192.9243 -452.5549 -3191.205 -450.43414 -3191.205 L -434.11414 -3191.205 C -431.99336 -3191.205 -430.27414 -3192.9243 -430.27414 -3195.045 L -430.27414 -3211.365 C -430.27414 -3213.486 -431.99336 -3215.205 -434.11414 -3215.205 Z" fill="#666"/>
        <path d="M -434.11414 -3215.205 L -450.43414 -3215.205 C -452.5549 -3215.205 -454.27414 -3213.486 -454.27414 -3211.365 L -454.27414 -3195.045 C -454.27414 -3192.9243 -452.5549 -3191.205 -450.43414 -3191.205 L -434.11414 -3191.205 C -431.99336 -3191.205 -430.27414 -3192.9243 -430.27414 -3195.045 L -430.27414 -3211.365 C -430.27414 -3213.486 -431.99336 -3215.205 -434.11414 -3215.205 Z" stroke="white" stroke-linecap="round" stroke-linejoin="round" stroke-width=".25"/>
      </g>
      <g id="Graphic_10908">
        <rect x="-454.27414" y="-3215.205" width="24" height="24" stroke="gray" stroke-opacity="0" stroke-linecap="round" stroke-linejoin="round" stroke-width=".25"/>
      </g>
      <g id="Graphic_10907">
        <path d="M -446.90147 -3201.205 L -446.90147 -3197.053 L -448.9883 -3199.3036 L -449.62163 -3198.6205 L -446.45497 -3195.205 L -443.2883 -3198.6205 L -443.92163 -3199.3036 L -446.00847 -3197.053 L -446.00847 -3201.205 Z" fill="#8eed62"/>
        <path d="M -446.90147 -3201.205 L -446.90147 -3197.053 L -448.9883 -3199.3036 L -449.62163 -3198.6205 L -446.45497 -3195.205 L -443.2883 -3198.6205 L -443.92163 -3199.3036 L -446.00847 -3197.053 L -446.00847 -3201.205 Z" stroke="#518737" stroke-linecap="round" stroke-linejoin="round" stroke-width=".25"/>
      </g>
      <g id="Graphic_10906">
        <path d="M -442.07665 -3205.5578 C -445.0509 -3205.9163 -446.671 -3209.3027 -445.0036 -3211.8133 C -442.6181 -3215.408 -437.1774 -3213.3503 -437.50856 -3208.9736 C -437.6389 -3207.241 -438.8795 -3206.28 -439.1886 -3204.7136 C -439.913 -3201.0454 -435.3228 -3199.2834 -433.2706 -3202.2902 C -431.87546 -3204.335 -433.33893 -3207.2073 -435.79487 -3207.384 C -436.1113 -3207.406 -436.66853 -3207.242 -436.7663 -3207.653 C -436.8767 -3208.1168 -436.3605 -3208.145 -436.03983 -3208.144 C -432.98463 -3208.1315 -430.9934 -3204.8303 -432.4411 -3202.144 C -434.49856 -3198.3245 -440.36506 -3199.8953 -440.0055 -3204.3445 C -439.8173 -3206.671 -437.58846 -3207.8844 -438.3896 -3210.4665 C -439.2811 -3213.3367 -442.99657 -3213.8035 -444.4758 -3211.2014 C -445.6449 -3209.145 -444.2624 -3206.545 -441.91684 -3206.3042 C -442.08506 -3206.649 -442.4341 -3206.956 -442.61493 -3207.284 C -442.8378 -3207.688 -442.3584 -3208.1315 -441.96625 -3207.7015 C -441.5394 -3207.2326 -441.19247 -3206.606 -440.75195 -3206.134 C -440.6426 -3205.9363 -440.6952 -3205.7302 -440.81714 -3205.5515 C -441.3838 -3205.2245 -441.9484 -3204.5737 -442.5035 -3204.271 C -442.82205 -3204.0975 -443.2226 -3204.3824 -443.0523 -3204.7377 C -442.93454 -3204.9838 -442.08295 -3205.4947 -442.07454 -3205.5578 Z" fill="#c0e0ff"/>
      </g>
    </g>
  </g>
</svg>
